packages/core/src/svgs/nfai.svg

<svg width="24" height="24" viewBox="0 0 24 24" fill="none" xmlns="http://www.w3.org/2000/svg">
<g clip-path="url(#clip0_31_14791)">
<path d="M0 0H24V24H0V0Z" fill="url(#paint0_linear_31_14791)"/>
<path d="M14.3356 14.0056L14.5156 14.0485C14.5713 14.0613 14.6313 14.0827 14.6913 14.087C14.7428 14.0956 14.7856 14.0485 14.807 14.0099C14.8156 13.997 14.8242 13.997 14.837 13.997C14.8483 13.9972 14.8591 14.0018 14.867 14.0099C14.9099 14.0613 14.927 14.1256 14.9099 14.1942C14.8898 14.2562 14.8469 14.3083 14.7899 14.3399C14.6794 14.3896 14.555 14.3987 14.4385 14.3656C14.3313 14.3399 14.1942 14.2799 14.1299 14.1899C14.1299 14.1813 14.1213 14.1813 14.1213 14.177C14.1213 14.1642 14.1042 14.1556 14.0913 14.1513C14.0828 14.1427 14.0742 14.1385 14.0613 14.1385C13.9328 14.1685 13.8042 14.1642 13.6799 14.1256C13.6628 14.117 13.6585 14.1042 13.6499 14.087C13.6499 14.0699 13.6585 14.057 13.6756 14.0485C13.8256 13.9713 13.9756 13.9027 14.0913 13.7785C14.1299 13.7399 14.1642 13.7099 14.207 13.6842C14.4042 13.5642 14.6999 13.5385 14.8799 13.7013C14.9399 13.757 14.9699 13.8642 14.9185 13.9413C14.9099 13.9542 14.897 13.9627 14.8799 13.9627C14.8734 13.9624 14.8671 13.9602 14.8618 13.9564C14.8565 13.9526 14.8523 13.9474 14.8499 13.9413C14.8028 13.8599 14.7213 13.8642 14.6442 13.8727C14.5269 13.8864 14.4172 13.9375 14.3313 14.0185L14.3356 14.0056ZM15.347 17.4299C15.4542 17.5113 15.5228 17.657 15.4628 17.7899C15.4242 17.9185 15.3513 18.0427 15.2185 18.0813C15.1713 18.0985 15.1242 18.0985 15.0685 18.1027L14.9828 18.1113C14.9828 18.137 14.9913 18.1627 14.9956 18.1799L15.0085 18.3085C15.0128 18.4499 14.9828 18.6042 14.9099 18.7285C14.8328 18.8742 14.7128 18.977 14.5585 19.0327C14.5413 19.0413 14.5242 19.0327 14.5113 19.0156C14.4985 18.9942 14.4985 18.9727 14.5113 18.9642C14.6913 18.737 14.6913 18.4927 14.6399 18.2185C14.6099 18.1113 14.6099 17.9913 14.6913 17.9013C14.777 17.8156 14.9099 17.7942 15.0256 17.7942C15.0642 17.7942 15.1028 17.8027 15.1413 17.7899C15.1713 17.7685 15.2013 17.717 15.227 17.687C15.2399 17.6699 15.2485 17.6485 15.257 17.6227V17.6185C15.2699 17.567 15.2399 17.5027 15.2099 17.4556C15.0985 17.4685 14.9913 17.4685 14.8799 17.4556C14.6165 17.4195 14.3579 17.3548 14.1085 17.2627C14.087 17.2585 14.0742 17.2327 14.0828 17.2156C14.087 17.1942 14.1042 17.1813 14.1256 17.1813C14.4556 17.2456 14.8113 17.3013 15.1413 17.267C15.3042 17.237 15.4499 17.1556 15.5613 17.0313V17.0099C15.5613 16.9242 15.5485 16.8299 15.5399 16.7399C15.5356 16.6456 15.5356 16.5427 15.5656 16.4485C15.5999 16.3199 15.7542 16.2685 15.8656 16.2342L16.1699 16.1527C16.2599 16.127 16.3542 16.1013 16.4313 16.0585C16.4291 16.0058 16.4144 15.9544 16.3885 15.9085C16.3521 15.8502 16.312 15.7944 16.2685 15.7413C16.2256 15.677 16.1956 15.6042 16.1656 15.5356C16.0456 15.2442 15.9299 14.9527 15.8228 14.657C15.737 14.3999 15.6685 14.1256 15.8142 13.877C15.9042 13.727 16.0456 13.6199 16.1699 13.4999C16.3585 13.2856 16.2385 12.8699 16.1399 12.6342C16.0853 12.4421 16.0693 12.2411 16.0928 12.0427C16.0928 12.0213 16.1099 11.9999 16.127 11.9999C16.1485 11.9999 16.1656 12.017 16.1699 12.0427C16.1999 12.2227 16.2213 12.407 16.2942 12.5785C16.3799 12.7413 16.4656 12.9213 16.4913 13.1142C16.5299 13.3156 16.5042 13.517 16.3756 13.6756C16.3028 13.7613 16.2213 13.8342 16.1528 13.9156C16.097 13.9842 16.0456 14.0742 16.0499 14.1727C16.0456 14.3013 16.1099 14.4427 16.1528 14.5585C16.2728 14.8842 16.4013 15.2013 16.5385 15.5099C16.5642 15.557 16.5942 15.6042 16.6328 15.6385C16.6756 15.6899 16.7099 15.7413 16.7356 15.8056C16.8128 15.9813 16.8256 16.2085 16.6328 16.3113C16.5085 16.3799 16.3585 16.4185 16.2213 16.4485L16.0156 16.4913L15.8613 16.5342C15.8313 16.6456 15.8442 16.8427 15.8442 16.9499C15.8442 16.9885 15.8442 17.0227 15.8313 17.0699C15.8185 17.117 15.8013 17.1642 15.7585 17.1899L15.7456 17.1942L15.6985 17.2327C15.5956 17.3185 15.4756 17.3827 15.3428 17.4213L15.347 17.4299ZM18.0599 11.0313C17.7942 11.3013 17.3828 11.2113 17.057 11.1427C16.4442 11.0056 15.8313 10.8642 15.2099 10.8899C15.1842 10.8899 15.167 10.8727 15.167 10.8513C15.167 10.8299 15.1756 10.8085 15.2013 10.8085C15.5228 10.7699 15.8442 10.7785 16.157 10.8085C16.4742 10.8385 16.787 10.8942 17.1042 10.9499C17.2328 10.967 17.3613 10.9927 17.4856 10.997C17.5628 11.0056 17.6485 10.997 17.7299 10.967C17.8028 10.937 17.8585 10.8899 17.9099 10.8299C17.9828 10.7399 18.047 10.637 18.1113 10.5427C18.2056 10.3842 18.3342 10.2513 18.5142 10.217C18.617 10.1742 18.7156 10.0842 18.7928 10.0027C18.8528 9.93845 18.9213 9.84417 18.9599 9.75846C18.8785 9.72417 18.7842 9.71131 18.6985 9.69845C18.5232 9.67253 18.3446 9.67834 18.1713 9.7156C18.1156 9.72845 18.0599 9.73703 18.0085 9.72846C17.7513 9.71131 17.5156 9.62131 17.2756 9.54417C16.9756 9.4456 16.6842 9.32988 16.397 9.20131C16.1099 9.0856 15.827 8.95703 15.5485 8.83703C15.3085 8.74054 15.0856 8.60595 14.8885 8.43846C14.7942 8.3656 14.7042 8.28417 14.6185 8.19845C14.5456 8.11703 14.4685 8.02703 14.4128 7.92845C14.3699 7.84274 14.3399 7.75274 14.3785 7.66274C14.3973 7.62588 14.4273 7.59589 14.4642 7.57703L13.5213 6.91274C13.4528 6.86988 13.367 6.8356 13.2856 6.82703H13.2556L13.1356 6.81845C12.2699 6.72845 11.3956 6.63845 10.5299 6.53988C10.5085 6.53988 10.4956 6.51417 10.4956 6.49703C10.4956 6.47131 10.5128 6.45417 10.5385 6.45417C11.4685 6.48846 12.3985 6.54417 13.3285 6.5956C13.5256 6.60845 13.7013 6.72845 13.8556 6.8356L14.6142 7.32846L14.8028 7.45703C14.8585 7.49131 14.9099 7.5256 14.9528 7.57703C14.9828 7.61131 14.9999 7.66274 14.9913 7.71417C14.9862 7.74142 14.974 7.76684 14.9559 7.7879C14.9379 7.80895 14.9146 7.82491 14.8885 7.83417C14.8449 7.85182 14.7983 7.86056 14.7513 7.85988C14.9508 8.11358 15.204 8.31995 15.4928 8.46417C15.8356 8.62274 16.1913 8.76845 16.5428 8.91845C16.8233 9.04051 17.1077 9.15342 17.3956 9.25703C17.6099 9.3256 17.8328 9.41131 18.0556 9.41988C18.2821 9.36861 18.5164 9.36134 18.7456 9.39845C18.9213 9.43274 19.2556 9.48417 19.2856 9.71131V9.7156C19.2899 9.8356 19.247 9.89988 19.1956 9.98988C19.1013 10.127 18.9899 10.247 18.8613 10.3413C18.7628 10.4185 18.6385 10.4785 18.5185 10.5042C18.497 10.5127 18.4756 10.5299 18.4628 10.547C18.3899 10.6113 18.3342 10.7013 18.2742 10.7827C18.2056 10.877 18.1456 10.967 18.0599 11.0399V11.0313ZM16.3328 11.5585C16.1485 11.5156 15.9513 11.4985 15.767 11.477L15.1713 11.4385L14.0399 11.3913C13.7528 11.3827 13.4613 11.3956 13.1785 11.3913C13.0756 11.3827 12.9728 11.3827 12.8785 11.3399C12.857 11.3313 12.8442 11.3099 12.8528 11.2885C12.8556 11.2794 12.8613 11.2716 12.8691 11.2662C12.8768 11.2607 12.8862 11.258 12.8956 11.2585C12.9813 11.2713 13.0799 11.2499 13.1656 11.237C13.2642 11.2242 13.3542 11.1985 13.4528 11.1942C14.2242 11.0656 15.0085 11.087 15.7756 11.1685C16.0028 11.1942 16.2299 11.2327 16.4442 11.3142H16.4485C16.4699 11.3185 16.487 11.3313 16.5042 11.3399C16.5213 11.3442 16.5428 11.357 16.5599 11.3699C16.8085 11.5242 17.0913 11.4213 17.2885 11.2242C17.297 11.2113 17.3228 11.2113 17.3399 11.2242C17.357 11.237 17.357 11.267 17.3528 11.2756C17.2756 11.4385 17.1299 11.5585 16.967 11.6185C16.787 11.6785 16.5942 11.6699 16.4185 11.5842L16.3413 11.5542L16.3328 11.5585ZM13.9585 8.42988C13.7356 8.8756 13.0028 8.71703 12.647 8.56703C12.5099 8.51131 12.3985 8.43845 12.2613 8.3956C12.2399 8.39131 12.227 8.37845 12.227 8.35703C12.2272 8.34881 12.2297 8.3408 12.2342 8.33396C12.2388 8.32713 12.2452 8.32174 12.2528 8.31845C12.3299 8.28845 12.4242 8.28417 12.5013 8.28417C12.7156 8.29703 12.9299 8.33988 13.1442 8.37845C13.4099 8.42131 13.6456 8.4856 13.907 8.36988C13.9147 8.36787 13.9227 8.36801 13.9303 8.37028C13.9378 8.37254 13.9446 8.37686 13.9499 8.38274C13.967 8.3956 13.967 8.41703 13.9585 8.43417V8.4256V8.42988ZM9.49276 6.20131C9.4956 5.80617 9.59101 5.4172 9.77133 5.0656C9.85565 4.87494 9.97773 4.70335 10.1302 4.56119C10.2827 4.41903 10.4624 4.30924 10.6585 4.23846C10.6756 4.23417 10.6928 4.23845 10.7056 4.25988C10.7185 4.27703 10.7142 4.29846 10.7013 4.31131C10.4228 4.57274 10.2728 4.88988 10.0928 5.21988L9.84419 5.71703C9.75847 5.88845 9.67276 6.05988 9.57419 6.21845C9.56133 6.23131 9.54419 6.24417 9.53133 6.2356C9.51419 6.23131 9.50133 6.21845 9.50133 6.19703L9.49276 6.2056V6.20131ZM11.3785 6.38131C11.0545 6.17473 10.8075 5.86717 10.6758 5.50618C10.5441 5.14518 10.535 4.75086 10.6499 4.38417C10.6585 4.36703 10.6713 4.35417 10.6885 4.35417C10.7056 4.35417 10.7185 4.36703 10.7228 4.38417C10.817 4.6756 10.877 4.97131 10.967 5.26274C11.087 5.6356 11.2413 5.99131 11.4256 6.3256C11.4385 6.34274 11.4342 6.36417 11.4213 6.37274C11.4085 6.3856 11.3913 6.39417 11.3742 6.38131H11.3785ZM15.707 13.5256C15.5399 13.4399 15.3642 13.3627 15.1928 13.3113C15.0682 13.2717 14.9376 13.2543 14.807 13.2599C14.6785 13.2642 14.5499 13.2856 14.4213 13.3113C14.237 13.3413 14.057 13.3799 13.877 13.4056H13.8685C13.7613 13.4099 13.6456 13.4099 13.5428 13.367C13.5256 13.3627 13.5128 13.3413 13.517 13.3242C13.517 13.3027 13.5342 13.2899 13.5556 13.2813C13.6413 13.2727 13.727 13.2385 13.8128 13.2085C13.9713 13.1399 14.1342 13.0713 14.3056 13.0113C14.477 12.9556 14.6613 12.9256 14.8456 12.9299C15.197 12.9427 15.5656 13.1527 15.7585 13.4613C15.7713 13.4827 15.767 13.4999 15.7542 13.5127C15.7483 13.5203 15.74 13.5257 15.7307 13.5281C15.7214 13.5304 15.7115 13.5295 15.7028 13.5256H15.7113H15.707ZM13.1742 15.5785C12.4885 15.5527 11.7899 15.3642 11.1856 15.0342C10.6003 14.7355 10.1136 14.2742 9.78419 13.7056C9.58689 13.3441 9.47407 12.9426 9.45419 12.5313C9.45419 12.5142 9.46276 12.497 9.48419 12.4885C9.50133 12.4842 9.51847 12.497 9.53133 12.5142C9.66419 12.887 9.82276 13.247 10.0456 13.5685C10.757 14.6185 12.0256 15.197 13.1828 15.497C13.2042 15.5013 13.2213 15.5227 13.2128 15.5399C13.2128 15.557 13.1956 15.5785 13.1699 15.5785H13.1742ZM11.9999 13.1442C11.987 12.887 12.0599 12.6342 12.1928 12.4156C12.4567 12.0083 12.8465 11.6983 13.3028 11.5327C13.3199 11.5242 13.3456 11.5327 13.3499 11.5499C13.355 11.5591 13.3565 11.5699 13.3541 11.5802C13.3518 11.5905 13.3457 11.5995 13.337 11.6056C12.9213 11.9056 12.4456 12.3342 12.3685 12.887C12.2785 13.817 12.7199 14.6999 13.3242 15.3513C13.3308 15.3591 13.3345 15.369 13.3345 15.3792C13.3345 15.3894 13.3308 15.3993 13.3242 15.407C13.3113 15.4242 13.2899 15.4242 13.2728 15.4156C12.8802 15.1628 12.5562 14.8168 12.3299 14.4085C12.1156 14.0227 11.9913 13.5899 11.9913 13.1399L11.9999 13.1442ZM13.757 10.6327C12.7456 10.5685 11.7085 10.5042 10.7013 10.7142L10.5728 10.7442C10.5299 10.757 10.4785 10.7656 10.4442 10.787C10.2856 10.8299 10.1399 10.8899 9.98133 10.937C9.70705 10.997 9.41133 11.0185 9.14133 10.967C8.62246 10.8688 8.15918 10.5798 7.84276 10.157C7.8299 10.1399 7.8299 10.1142 7.84704 10.1013C7.8599 10.0885 7.88562 10.0842 7.90276 10.1013C8.08705 10.2599 8.28847 10.3927 8.50705 10.4999C8.93541 10.7152 9.42753 10.767 9.89133 10.6456C10.007 10.6027 10.127 10.5599 10.2428 10.5256C10.3713 10.4827 10.4999 10.4399 10.637 10.4099C11.6785 10.2042 12.7628 10.2985 13.787 10.5556C13.8042 10.5642 13.8213 10.5813 13.817 10.607C13.8085 10.6242 13.7913 10.6456 13.7742 10.6456L13.757 10.6327ZM8.76419 8.1556C9.44133 8.49846 10.1442 8.79417 10.8599 9.0556C10.9628 9.09845 11.0742 9.12845 11.1728 9.17988C11.1942 9.18417 11.207 9.2056 11.1985 9.22274C11.1942 9.24417 11.1813 9.25703 11.1642 9.25703C10.6936 9.27462 10.225 9.18676 9.79276 8.99988C9.37436 8.83657 9.00528 8.56788 8.72133 8.21988C8.71577 8.21247 8.71276 8.20344 8.71276 8.19417C8.71276 8.1849 8.71577 8.17587 8.72133 8.16845C8.72694 8.16176 8.73446 8.15695 8.74289 8.15465C8.75132 8.15235 8.76024 8.15268 8.76847 8.1556H8.76419ZM7.00276 8.6056C6.82491 8.22521 6.71746 7.81573 6.68562 7.39703C6.61043 6.34716 6.86839 5.30033 7.42276 4.4056C7.53419 4.22131 7.66276 4.04988 7.78704 3.87417C7.7999 3.85274 7.82562 3.85274 7.84276 3.86131C7.8599 3.87417 7.86847 3.89131 7.8599 3.91274C7.75276 4.1956 7.6199 4.46988 7.52133 4.7656C7.03603 5.97027 6.885 7.28364 7.08419 8.56703C7.09276 8.58417 7.0799 8.60988 7.06276 8.61846C7.04133 8.62274 7.0199 8.61845 7.01133 8.59703L7.00276 8.6056ZM9.25276 6.5956C9.34705 6.73274 9.39419 6.91703 9.37704 7.08846C9.35562 7.27703 9.26133 7.4356 9.10276 7.52988C9.08562 7.54274 9.06847 7.53846 9.04705 7.51703C9.04113 7.50894 9.03793 7.49919 9.03793 7.48917C9.03793 7.47915 9.04113 7.46939 9.04705 7.46131C9.29133 7.17845 9.11562 6.84417 8.88419 6.62131C8.47412 6.20481 8.18138 5.68734 8.03562 5.12131C7.9586 4.81687 7.95128 4.49898 8.01419 4.19131C8.01847 4.16988 8.03133 4.15703 8.05704 4.15703C8.06707 4.15682 8.07685 4.16014 8.08468 4.16641C8.09251 4.17267 8.0979 4.18149 8.0999 4.19131C8.15133 4.47845 8.2199 4.76988 8.33133 5.03988C8.4899 5.45988 8.72133 5.85417 8.97419 6.20988C9.06847 6.33845 9.17562 6.45845 9.25276 6.5956ZM13.0542 19.2813C12.4047 19.217 11.7823 18.9884 11.2456 18.617C10.2494 17.9265 9.52383 16.9116 9.19276 15.7456C9.02133 15.2056 8.92705 14.6442 8.89705 14.0827C8.89684 14.0727 8.90016 14.0629 8.90643 14.0551C8.91269 14.0473 8.9215 14.0419 8.93133 14.0399C8.95276 14.0313 8.97419 14.0485 8.98276 14.0699C9.27419 15.1627 9.61705 16.2213 10.2599 17.1556C10.9177 18.1568 11.9193 18.8824 13.0756 19.1956C13.097 19.2042 13.1142 19.2213 13.1056 19.247C13.1013 19.2685 13.0842 19.2856 13.0628 19.2856L13.0542 19.2813ZM6.93847 11.087C6.82277 11.6717 6.75824 12.2654 6.74562 12.8613C6.73276 13.4613 6.7799 14.057 6.88276 14.6442C7.09277 15.8479 7.59618 16.9813 8.34847 17.9442C8.56704 18.2313 8.8199 18.497 9.06419 18.7585C9.07704 18.7799 9.08133 18.8013 9.06419 18.8185C9.05133 18.8356 9.0299 18.8356 9.00847 18.8227C7.69186 17.8142 6.80664 16.3439 6.53133 14.7085C6.31704 13.487 6.43704 12.2099 6.85276 11.057C6.86133 11.0356 6.88276 11.0227 6.8999 11.0313C6.92133 11.0356 6.93419 11.057 6.93419 11.0785L6.93847 11.087Z" fill="white"/>
</g>
<defs>
<linearGradient id="paint0_linear_31_14791" x1="4.46571" y1="4.16143" x2="29.2071" y2="32.58" gradientUnits="userSpaceOnUse">
<stop stop-color="#1A1E21"/>
<stop offset="1" stop-color="#06060A"/>
</linearGradient>
<clipPath id="clip0_31_14791">
<rect width="24" height="24" fill="white"/>
</clipPath>
</defs>
</svg>

<svg xmlns="http://www.w3.org/2000/svg" width="24" height="24" fill="none" viewBox="0 0 24 24"><g clip-path="url(#a)"><path fill="url(#b)" d="M0 0h24v24H0z"/><path fill="#fff" d="m14.336 14.006.18.043c.055.012.115.034.175.038.052.009.095-.038.116-.077.009-.013.017-.013.03-.013q.017 0 .03.013c.043.051.06.116.043.184a.26.26 0 0 1-.12.146.5.5 0 0 1-.351.026c-.108-.026-.245-.086-.31-.176 0-.009-.008-.009-.008-.013 0-.013-.017-.021-.03-.026a.04.04 0 0 0-.03-.012.7.7 0 0 1-.381-.013c-.017-.009-.021-.022-.03-.039q0-.026.026-.038c.15-.078.3-.146.415-.27a.6.6 0 0 1 .116-.095c.197-.12.493-.145.673.017.06.056.09.163.038.24a.05.05 0 0 1-.038.022.03.03 0 0 1-.03-.022c-.047-.081-.129-.077-.206-.068a.55.55 0 0 0-.313.146zm1.011 3.424c.107.081.176.227.116.36-.039.129-.112.253-.244.291-.048.018-.095.018-.15.022l-.086.008c0 .026.008.052.013.069l.012.128a.8.8 0 0 1-.098.42.63.63 0 0 1-.351.305q-.028.01-.048-.017c-.012-.022-.012-.043 0-.052.18-.227.18-.471.129-.745-.03-.108-.03-.228.051-.318.086-.085.219-.107.335-.107.038 0 .077.009.115-.004.03-.021.06-.073.086-.103a.2.2 0 0 0 .03-.064v-.005c.013-.051-.017-.115-.047-.162a1.4 1.4 0 0 1-.33 0 3.7 3.7 0 0 1-.772-.193c-.021-.005-.034-.03-.025-.047a.04.04 0 0 1 .043-.035c.33.065.685.12 1.015.086a.74.74 0 0 0 .42-.236v-.021c0-.086-.012-.18-.021-.27a.8.8 0 0 1 .026-.291c.034-.13.188-.18.3-.215l.304-.081c.09-.026.184-.052.261-.095a.33.33 0 0 0-.043-.15 2 2 0 0 0-.12-.167c-.042-.064-.072-.137-.102-.205q-.181-.437-.343-.879c-.086-.257-.155-.531-.009-.78.09-.15.232-.257.356-.377.188-.214.068-.63-.03-.866a1.5 1.5 0 0 1-.047-.591c0-.022.017-.043.034-.043.021 0 .039.017.043.043.03.18.051.364.124.536.086.162.172.342.197.535.039.202.013.403-.115.562-.073.085-.155.158-.223.24a.4.4 0 0 0-.103.257c-.004.128.06.27.103.386q.18.488.386.95a.5.5 0 0 0 .094.13.6.6 0 0 1 .103.167c.077.175.09.403-.103.505a1.6 1.6 0 0 1-.412.137l-.205.043-.155.043c-.03.112-.017.309-.017.416 0 .038 0 .073-.013.12s-.03.094-.072.12l-.013.004-.048.039a1 1 0 0 1-.355.188zm2.713-6.399c-.266.27-.677.18-1.003.112-.613-.137-1.226-.279-1.847-.253-.026 0-.043-.017-.043-.039s.009-.043.034-.043a4.5 4.5 0 0 1 .956 0c.317.03.63.086.947.142.129.017.257.043.382.047a.54.54 0 0 0 .244-.03.5.5 0 0 0 .18-.137c.073-.09.137-.193.201-.287.095-.159.223-.292.403-.326a.9.9 0 0 0 .279-.214 1 1 0 0 0 .167-.245c-.082-.034-.176-.047-.262-.06a1.5 1.5 0 0 0-.527.018.4.4 0 0 1-.162.012c-.258-.017-.493-.107-.733-.184a9 9 0 0 1-.879-.343c-.287-.115-.57-.244-.848-.364a2.4 2.4 0 0 1-.66-.399 3 3 0 0 1-.27-.24 1.6 1.6 0 0 1-.206-.27c-.043-.085-.073-.175-.034-.265a.2.2 0 0 1 .085-.086l-.943-.664a.6.6 0 0 0-.235-.086h-.03l-.12-.009c-.866-.09-1.74-.18-2.606-.278-.021 0-.034-.026-.034-.043 0-.026.017-.043.043-.043.93.034 1.86.09 2.79.142.197.012.372.132.527.24l.758.492.189.129a.6.6 0 0 1 .15.12.17.17 0 0 1 .038.137.16.16 0 0 1-.102.12.4.4 0 0 1-.138.026c.2.254.453.46.742.604.343.159.698.304 1.05.454q.42.184.853.339c.214.069.437.154.66.163.226-.051.46-.059.69-.022.175.035.51.086.54.313v.005c.004.12-.039.184-.09.274a1.5 1.5 0 0 1-.335.351.9.9 0 0 1-.343.163.14.14 0 0 0-.055.043c-.073.064-.129.154-.189.236-.068.094-.128.184-.214.257zm-1.727.527c-.184-.042-.382-.06-.566-.081l-.596-.039-1.131-.047c-.287-.008-.579.005-.861 0-.103-.008-.206-.008-.3-.051-.022-.009-.035-.03-.026-.051a.04.04 0 0 1 .016-.023.04.04 0 0 1 .027-.008c.085.013.184-.008.27-.021.098-.013.188-.039.287-.043.771-.128 1.556-.107 2.323-.026.227.026.454.065.668.146h.005c.02.005.038.017.055.026a.2.2 0 0 1 .056.03c.248.154.531.051.729-.146.008-.013.034-.013.05 0 .018.013.018.043.014.052a.7.7 0 0 1-.386.342.72.72 0 0 1-.548-.034l-.078-.03zM13.959 8.43c-.223.446-.956.287-1.312.137-.137-.056-.248-.129-.386-.171q-.033-.008-.034-.039 0-.012.007-.023a.04.04 0 0 1 .019-.016.7.7 0 0 1 .248-.034c.215.013.429.056.643.094.266.043.502.108.763-.008a.04.04 0 0 1 .043.013c.017.013.017.034.009.051v-.008zM9.493 6.2c.003-.395.098-.784.278-1.135a1.54 1.54 0 0 1 .887-.828c.018-.004.035 0 .048.022a.04.04 0 0 1-.005.051c-.278.262-.428.579-.608.909l-.249.497c-.086.171-.171.343-.27.501-.013.013-.03.026-.043.018a.04.04 0 0 1-.03-.039l-.008.009zm1.886.18a1.75 1.75 0 0 1-.73-1.997c.01-.017.022-.03.04-.03.017 0 .03.013.034.03.094.292.154.587.244.879q.18.56.459 1.063c.012.017.008.038-.005.047-.012.013-.03.021-.047.008zm4.328 7.145a3 3 0 0 0-.514-.215 1.1 1.1 0 0 0-.386-.051 2.4 2.4 0 0 0-.386.051c-.184.03-.364.069-.544.095h-.009a.8.8 0 0 1-.325-.039.04.04 0 0 1-.026-.043c0-.021.017-.034.039-.043.085-.008.171-.043.257-.072q.236-.107.493-.198c.171-.055.355-.085.54-.081.351.013.72.223.912.531q.018.033-.004.052a.043.043 0 0 1-.051.013h.008zm-2.533 2.053a4.56 4.56 0 0 1-1.988-.545 3.4 3.4 0 0 1-1.402-1.328 2.7 2.7 0 0 1-.33-1.175c0-.017.009-.034.03-.043.017-.004.034.009.047.026.133.373.292.733.515 1.055.711 1.05 1.98 1.628 3.137 1.928.021.004.038.026.03.043 0 .017-.017.039-.043.039zM12 13.144c-.013-.257.06-.51.193-.728a2.23 2.23 0 0 1 1.11-.883c.017-.009.043 0 .047.017a.043.043 0 0 1-.013.056c-.416.3-.891.728-.969 1.281-.09.93.352 1.813.956 2.464q.01.012.01.028 0 .015-.01.028c-.013.017-.034.017-.051.009a2.8 2.8 0 0 1-.943-1.008 2.6 2.6 0 0 1-.339-1.268zm1.757-2.511c-1.011-.064-2.048-.129-3.056.081l-.128.03c-.043.013-.095.022-.129.043-.158.043-.304.103-.463.15-.274.06-.57.082-.84.03a2.1 2.1 0 0 1-1.298-.81c-.013-.017-.013-.043.004-.056a.04.04 0 0 1 .056 0q.276.239.604.399c.428.215.92.267 1.384.146.116-.043.236-.086.352-.12.128-.043.257-.086.394-.116 1.041-.206 2.126-.111 3.15.146.017.008.034.025.03.051-.008.017-.026.039-.043.039zM8.764 8.156c.677.342 1.38.638 2.096.9.103.042.214.072.313.124.021.004.034.026.025.043q-.007.033-.034.034c-.47.018-.939-.07-1.371-.257a2.6 2.6 0 0 1-1.072-.78.04.04 0 0 1 0-.052.04.04 0 0 1 .047-.012zm-1.761.45a3.5 3.5 0 0 1-.317-1.209 5 5 0 0 1 .737-2.991c.111-.185.24-.356.364-.532.013-.021.039-.021.056-.013q.027.02.017.052c-.107.283-.24.557-.339.853a7.2 7.2 0 0 0-.437 3.801c.009.017-.004.043-.021.051-.022.005-.043 0-.052-.021zm2.25-2.01a.76.76 0 0 1 .124.492.57.57 0 0 1-.274.442q-.025.019-.056-.013a.05.05 0 0 1 0-.056c.244-.283.069-.617-.163-.84a3.3 3.3 0 0 1-.848-1.5 2.1 2.1 0 0 1-.022-.93q.005-.033.043-.034a.04.04 0 0 1 .043.034c.051.287.12.579.231.849.159.42.39.814.643 1.17.094.128.202.248.279.386m3.801 12.685a3.84 3.84 0 0 1-1.808-.664 5.23 5.23 0 0 1-2.053-2.871 6.7 6.7 0 0 1-.296-1.663.04.04 0 0 1 .034-.043c.022-.009.043.009.052.03.291 1.093.634 2.151 1.277 3.086a4.9 4.9 0 0 0 2.816 2.04c.021.008.038.025.03.051-.005.021-.022.039-.043.039zm-6.116-8.194a10.3 10.3 0 0 0-.192 1.774q-.019.901.137 1.783a7.44 7.44 0 0 0 1.465 3.3c.219.287.472.553.716.815.013.02.017.042 0 .06q-.021.024-.056.004a6.55 6.55 0 0 1-2.477-4.114 7.2 7.2 0 0 1 .322-3.652c.008-.021.03-.034.047-.026.021.005.034.026.034.047z"/></g><defs><linearGradient id="b" x1="4.466" x2="29.207" y1="4.161" y2="32.58" gradientUnits="userSpaceOnUse"><stop stop-color="#1A1E21"/><stop offset="1" stop-color="#06060A"/></linearGradient><clipPath id="a"><path fill="#fff" d="M0 0h24v24H0z"/></clipPath></defs></svg>
